configs/network-icons/fluence-dark.svg

<svg width="256" height="256" viewBox="0 0 256 256" fill="none" xmlns="http://www.w3.org/2000/svg">
<path fill-rule="evenodd" clip-rule="evenodd" d="M118.403 0H137.871V42.9517C180.364 48.0001 213.316 84.1554 213.316 128.007C213.316 171.859 180.364 208.014 137.871 213.062V256H118.403V213.171C75.4482 208.556 42 172.188 42 128.007C42 83.8264 75.4482 47.458 118.403 42.8433V0ZM118.403 62.4587C86.2285 66.9602 61.4677 94.592 61.4677 128.007C61.4677 161.422 86.2285 189.054 118.403 193.555V62.4587ZM137.871 193.414C169.577 188.503 193.848 161.089 193.848 128.007C193.848 94.9245 169.577 67.5107 137.871 62.5999V193.414Z" fill="white"/>
</svg>

<svg xmlns="http://www.w3.org/2000/svg" fill="none" viewBox="0 0 256 256">
  <path fill="#fff" fill-rule="evenodd" d="M118.403 0h19.468v42.952c42.493 5.048 75.445 41.203 75.445 85.055 0 43.852-32.952 80.007-75.445 85.055V256h-19.468v-42.829C75.448 208.556 42 172.188 42 128.007c0-44.18 33.448-80.549 76.403-85.164V0Zm0 62.459c-32.175 4.501-56.935 32.133-56.935 65.548s24.76 61.047 56.935 65.548V62.459Zm19.468 130.955c31.706-4.911 55.977-32.325 55.977-65.407 0-33.083-24.271-60.496-55.977-65.407v130.814Z" clip-rule="evenodd"/>
</svg>
